lib/logotmp/nrk-logo-nrk-rogaland-with-bg.svg

<svg width="124" height="24" viewBox="0 0 124 24" fill="none" xmlns="http://www.w3.org/2000/svg">
<rect width="124" height="24" fill="#1767CE"/>
<path d="M6 17.9975V5.99859H10V17.9975H6ZM15.2438 7.90828L17.5081 17.9975H13.1992L10.4955 5.99859H12.9122C13.4663 5.9914 14.0041 6.18675 14.4245 6.54789C14.8456 6.89388 15.0849 7.37419 15.2438 7.90828ZM18 17.9975V5.99859H22V17.9975H18ZM25.0105 10.5616C24.5862 10.5657 24.1687 10.4547 23.8025 10.2405C23.4412 10.0316 23.1411 9.73146 22.9323 9.37009C22.7178 9.00383 22.6068 8.58626 22.611 8.16181C22.6061 7.73996 22.7172 7.32488 22.9323 6.96192C23.1433 6.60449 23.4431 6.30759 23.8025 6.10002C24.1689 5.886 24.5862 5.77501 25.0105 5.77888C25.4322 5.77434 25.8471 5.88543 26.2102 6.10002C26.566 6.30941 26.8626 6.60606 27.072 6.96192C27.2868 7.32498 27.3979 7.73999 27.3933 8.16181C27.3973 8.58622 27.2863 9.00372 27.072 9.37009C26.8649 9.72987 26.5679 10.0298 26.2102 10.2405C25.8471 10.4555 25.4324 10.5666 25.0105 10.5616ZM28 17.9975V5.99859H32V17.9975H28ZM36.9737 12.5557C36.9848 12.5674 37.0693 12.7054 37.2272 12.9698C37.3851 13.2342 37.5906 13.5722 37.8439 13.9838C38.0974 14.3952 38.3649 14.8318 38.6463 15.2935C38.9278 15.7552 39.1926 16.1919 39.4408 16.6033C39.6881 17.0147 39.9697 17.4794 40.2857 17.9975H35.9598C35.6893 17.5581 35.4441 17.161 35.2245 16.8061C35.0048 16.4512 34.7713 16.0681 34.5238 15.6569C34.2758 15.246 34.0306 14.846 33.7882 14.457C33.5458 14.0679 33.3375 13.7271 33.1633 13.4346C32.9883 13.1418 32.8671 12.9446 32.7997 12.843C32.6325 12.5909 32.5336 12.2998 32.5127 11.998C32.5294 11.7084 32.6226 11.4285 32.7828 11.1866C32.8503 11.0739 32.9743 10.8739 33.1545 10.5866C33.3348 10.2993 33.546 9.95855 33.7882 9.56422C34.0304 9.16989 34.2756 8.7671 34.5238 8.35587C34.772 7.94464 35.0055 7.55873 35.2245 7.1982C35.4445 6.83805 35.6897 6.43808 35.9598 5.99831H40.2857L36.9396 11.457C36.8361 11.6191 36.7777 11.8058 36.7706 11.998C36.7818 12.1998 36.8528 12.3938 36.9737 12.5557Z" fill="white"/>
<path d="M50.8824 13.0485C51.1134 13.0119 51.333 12.9612 51.547 12.8936C52.0032 12.7472 52.4002 12.5248 52.7381 12.2263C53.076 11.9278 53.3407 11.5561 53.5322 11.1112C53.7237 10.6663 53.8194 10.1509 53.8194 9.56524C53.8194 8.91194 53.6927 8.31497 53.4393 7.77431C53.1859 7.23366 52.7691 6.80282 52.189 6.48181C51.609 6.16079 50.8289 6.00029 49.849 6.00029H45V17.9961H46.7571V13.4005H49.3421L52.3326 17.9961H54.3939L51.5892 13.8398L50.8853 13.0485H50.8824ZM50.9134 7.69828C51.2851 7.85034 51.5611 8.08688 51.7413 8.40789C51.9215 8.72891 52.0116 9.13722 52.0116 9.63282C52.0116 10.1847 51.9018 10.6325 51.6822 10.976C51.4625 11.3196 51.1471 11.5674 50.736 11.7194C50.3249 11.8715 49.8377 11.9475 49.2746 11.9475H46.7571V7.4702H49.4773C50.063 7.4702 50.5417 7.54622 50.9134 7.69828ZM62.0391 9.73419C61.3914 9.37375 60.6283 9.19353 59.7498 9.19353C58.8712 9.19353 58.1025 9.37939 57.4435 9.75109C56.7846 10.1228 56.2721 10.6465 55.906 11.3224C55.54 11.9982 55.3569 12.7979 55.3569 13.7215C55.3569 14.6451 55.5287 15.442 55.8722 16.1122C56.2158 16.7824 56.7086 17.2921 57.3506 17.6413C57.9926 17.9905 58.736 18.165 59.5808 18.165C60.4256 18.165 61.2366 17.9792 61.9124 17.6075C62.5882 17.2358 63.1148 16.7064 63.4921 16.0193C63.8694 15.3322 64.0581 14.5212 64.0581 13.5864C64.0581 12.6515 63.8835 11.9222 63.5344 11.2632C63.1852 10.6043 62.6868 10.0946 62.0391 9.73419ZM61.9377 15.3942C61.7181 15.8673 61.4112 16.2192 61.0169 16.4501C60.6227 16.6811 60.1722 16.7965 59.6653 16.7965C59.1584 16.7965 58.7191 16.6782 58.3474 16.4417C57.9757 16.2052 57.6829 15.8504 57.4689 15.3773C57.2549 14.9042 57.1479 14.3185 57.1479 13.6202C57.1479 12.9218 57.2549 12.3643 57.4689 11.9137C57.6829 11.4632 57.9842 11.1253 58.3728 10.9C58.7614 10.6747 59.226 10.5621 59.7667 10.5621C60.1947 10.5621 60.5636 10.6325 60.8733 10.7733C61.1831 10.9141 61.4421 11.1196 61.6505 11.3899C61.8589 11.6603 62.0138 11.9841 62.1151 12.3614C62.2165 12.7388 62.2672 13.1583 62.2672 13.6202C62.2672 14.3298 62.1574 14.9211 61.9377 15.3942ZM71.5682 9.41318C71.326 9.34559 71.0641 9.29209 70.7825 9.25267C70.5009 9.21325 70.1968 9.19353 69.8702 9.19353C69.307 9.19353 68.772 9.30054 68.2651 9.51455C67.7582 9.72856 67.3049 10.0355 66.905 10.4354C66.5051 10.8352 66.1926 11.3308 65.9673 11.9222C65.742 12.5135 65.6294 13.1921 65.6294 13.9581C65.6294 14.8141 65.773 15.5547 66.0602 16.1798C66.3475 16.805 66.767 17.2893 67.3189 17.6328C67.8709 17.9764 68.541 18.1481 69.3295 18.1481C69.9377 18.1481 70.5403 18.0299 71.1373 17.7933C71.4612 17.6638 71.7822 17.4808 72.1004 17.2471V17.7089C72.1004 18.1369 72.0469 18.5114 71.9399 18.8324C71.8329 19.1534 71.6695 19.4238 71.4499 19.6434C71.2302 19.863 70.943 20.0264 70.5882 20.1334C70.2334 20.2404 69.8026 20.2939 69.2957 20.2939C68.9578 20.2939 68.6114 20.2742 68.2566 20.2347C67.9018 20.1953 67.5442 20.1277 67.1838 20.032C66.8233 19.9363 66.4685 19.8152 66.1194 19.6687L66.3052 21.1555C66.6093 21.2794 66.9275 21.3836 67.2598 21.4681C67.5921 21.5526 67.9384 21.6174 68.2989 21.6624C68.6593 21.7075 69.031 21.73 69.414 21.73C70.3714 21.73 71.1767 21.5695 71.83 21.2485C72.4833 20.9275 72.9761 20.4825 73.3084 19.9137C73.6407 19.3449 73.8068 18.6888 73.8068 17.9454V9.19353L72.1539 9.61874C71.968 9.53989 71.7737 9.46949 71.5682 9.41318ZM71.8807 16.1798C71.6555 16.3094 71.4386 16.4164 71.2302 16.5008C71.0219 16.5853 70.8191 16.6501 70.622 16.6951C70.4249 16.7402 70.2193 16.7627 70.0053 16.7627C69.4196 16.7627 68.9325 16.6529 68.5439 16.4333C68.1553 16.2136 67.868 15.8813 67.6822 15.4364C67.4963 14.9915 67.4034 14.4199 67.4034 13.7215C67.4034 13.2034 67.4682 12.7444 67.5977 12.3445C67.7273 11.9447 67.9131 11.6152 68.1553 11.3562C68.3974 11.0971 68.6959 10.8972 69.0507 10.7564C69.4055 10.6156 69.8082 10.5452 70.2588 10.5452C70.5291 10.5452 70.7938 10.5677 71.0528 10.6128C71.3119 10.6578 71.5766 10.7226 71.8469 10.8071C71.9286 10.8324 72.0159 10.8662 72.1004 10.9V16.0503C72.0272 16.0953 71.9511 16.1404 71.8807 16.1798ZM83.7414 16.9317C83.4372 16.9317 83.2176 16.8416 83.0824 16.6613C82.9473 16.4811 82.8853 16.1826 82.8966 15.7659L82.9304 12.2854C82.9304 11.8912 82.8853 11.5307 82.7952 11.2041C82.7051 10.8775 82.5699 10.5902 82.3897 10.3424C82.2095 10.0946 81.9758 9.88625 81.6886 9.7173C81.4013 9.54834 81.0606 9.41881 80.6664 9.3287C80.2722 9.23859 79.8272 9.19353 79.3316 9.19353C78.9712 9.19353 78.6164 9.21606 78.2672 9.26112C77.918 9.30617 77.5886 9.37094 77.2788 9.45542C76.9691 9.53989 76.6734 9.63845 76.3918 9.75109L76.1891 11.1872C76.4707 11.0858 76.7382 11.0014 76.9916 10.9338C77.245 10.8662 77.49 10.8099 77.7266 10.7648C77.9631 10.7198 78.1968 10.6888 78.4277 10.6719C78.6586 10.655 78.8867 10.6465 79.112 10.6465C79.5175 10.6465 79.8582 10.686 80.1342 10.7648C80.4101 10.8437 80.627 10.9619 80.7846 11.1196C80.9423 11.2773 81.055 11.4772 81.1226 11.7194C81.1901 11.9616 81.2239 12.246 81.2239 12.5726V12.9978L79.2472 13.1302C78.4587 13.1752 77.8054 13.3217 77.2873 13.5695C76.7692 13.8173 76.3834 14.1298 76.1299 14.5072C75.8765 14.8845 75.7498 15.2984 75.7498 15.749C75.7498 16.1995 75.8483 16.574 76.0455 16.9401C76.2426 17.3062 76.5411 17.6019 76.9409 17.8271C77.3408 18.0524 77.8392 18.165 78.4362 18.165C78.9881 18.165 79.464 18.0862 79.8638 17.9285C80.2637 17.7708 80.6185 17.5455 80.9283 17.2527C81.0437 17.1429 81.1535 17.0246 81.2605 16.8979C81.3 17.0865 81.3591 17.2555 81.4436 17.3963C81.6013 17.661 81.8209 17.8525 82.1025 17.9707C82.3841 18.089 82.7051 18.1481 83.0655 18.1481C83.1669 18.1481 83.2655 18.1453 83.3612 18.1397C83.457 18.1341 83.5499 18.12 83.64 18.0975C83.7301 18.0749 83.8118 18.0552 83.885 18.0383C83.9582 18.0214 84.0229 18.0017 84.0793 17.9792L84.2651 16.8472C84.1637 16.881 84.068 16.9035 83.9779 16.9148C83.8878 16.926 83.8089 16.9317 83.7414 16.9317ZM80.9283 16.1714C80.7424 16.3178 80.5453 16.4417 80.3369 16.5431C80.1285 16.6444 79.9089 16.7177 79.678 16.7627C79.4471 16.8078 79.2077 16.8303 78.9599 16.8303C78.6446 16.8303 78.377 16.7796 78.1574 16.6782C77.9378 16.5769 77.7716 16.4333 77.659 16.2474C77.5463 16.0616 77.49 15.8391 77.49 15.58C77.49 15.2421 77.5632 14.9774 77.7097 14.7859C77.8561 14.5945 78.0926 14.4537 78.4193 14.3636C78.7459 14.2734 79.1852 14.2284 79.7371 14.2284H81.2155L81.207 15.9067C81.1197 16.0052 81.0268 16.0953 80.9254 16.1714H80.9283ZM88.7086 16.7289C88.7762 16.7177 88.8438 16.7064 88.9114 16.6951L88.7424 18.0299C88.6636 18.0524 88.565 18.0749 88.4468 18.0975C88.3285 18.12 88.2074 18.1369 88.0835 18.1481C87.9596 18.1594 87.8301 18.165 87.6949 18.165C87.4246 18.165 87.174 18.1341 86.9431 18.0721C86.7122 18.0102 86.5122 17.906 86.3433 17.7595C86.1743 17.6131 86.0448 17.4245 85.9547 17.1936C85.8646 16.9626 85.8195 16.6839 85.8195 16.3572V5.49342L87.5428 5.23999V15.5969C87.5428 15.7997 87.5569 15.9743 87.5851 16.1207C87.6132 16.2671 87.6611 16.3882 87.7287 16.4839C87.7963 16.5797 87.8808 16.6501 87.9821 16.6951C88.0835 16.7402 88.2074 16.7627 88.3538 16.7627C88.4214 16.7627 88.4805 16.7627 88.5312 16.7543C88.5819 16.7486 88.6411 16.7402 88.7086 16.7289ZM97.9505 16.9317C97.6463 16.9317 97.4267 16.8416 97.2915 16.6613C97.1564 16.4811 97.0944 16.1826 97.1057 15.7659L97.1395 12.2854C97.1395 11.8912 97.0944 11.5307 97.0043 11.2041C96.9142 10.8775 96.779 10.5902 96.5988 10.3424C96.4186 10.0946 96.1849 9.88625 95.8977 9.7173C95.6104 9.54834 95.2697 9.41881 94.8755 9.3287C94.4813 9.23859 94.0363 9.19353 93.5407 9.19353C93.1803 9.19353 92.8255 9.21606 92.4763 9.26112C92.1272 9.30617 91.7977 9.37094 91.4879 9.45542C91.1782 9.53989 90.8825 9.63845 90.6009 9.75109L90.3982 11.1872C90.6798 11.0858 90.9473 11.0014 91.2007 10.9338C91.4542 10.8662 91.6991 10.8099 91.9357 10.7648C92.1722 10.7198 92.4059 10.6888 92.6368 10.6719C92.8677 10.655 93.0958 10.6465 93.3211 10.6465C93.7266 10.6465 94.0673 10.686 94.3433 10.7648C94.6192 10.8437 94.8361 10.9619 94.9938 11.1196C95.1514 11.2773 95.2641 11.4772 95.3317 11.7194C95.3993 11.9616 95.433 12.246 95.433 12.5726V12.9978L93.4563 13.1302C92.6678 13.1752 92.0145 13.3217 91.4964 13.5695C90.9783 13.8173 90.5925 14.1298 90.339 14.5072C90.0856 14.8845 89.9589 15.2984 89.9589 15.749C89.9589 16.1995 90.0575 16.574 90.2546 16.9401C90.4517 17.3062 90.7502 17.6019 91.15 17.8271C91.5499 18.0524 92.0483 18.165 92.6453 18.165C93.1972 18.165 93.6731 18.0862 94.073 17.9285C94.4728 17.7708 94.8276 17.5455 95.1374 17.2527C95.2528 17.1429 95.3626 17.0246 95.4696 16.8979C95.5091 17.0865 95.5682 17.2555 95.6527 17.3963C95.8104 17.661 96.03 17.8525 96.3116 17.9707C96.5932 18.089 96.9142 18.1481 97.2746 18.1481C97.376 18.1481 97.4746 18.1453 97.5703 18.1397C97.6661 18.1341 97.759 18.12 97.8491 18.0975C97.9392 18.0749 98.0209 18.0552 98.0941 18.0383C98.1673 18.0214 98.2321 18.0017 98.2884 17.9792L98.4742 16.8472C98.3729 16.881 98.2771 16.9035 98.187 16.9148C98.0969 16.926 98.018 16.9317 97.9505 16.9317ZM95.1374 16.1714C94.9515 16.3178 94.7544 16.4417 94.546 16.5431C94.3376 16.6444 94.118 16.7177 93.8871 16.7627C93.6562 16.8078 93.4168 16.8303 93.169 16.8303C92.8537 16.8303 92.5862 16.7796 92.3665 16.6782C92.1469 16.5769 91.9807 16.4333 91.8681 16.2474C91.7555 16.0616 91.6991 15.8391 91.6991 15.58C91.6991 15.2421 91.7723 14.9774 91.9188 14.7859C92.0652 14.5945 92.3017 14.4537 92.6284 14.3636C92.955 14.2734 93.3943 14.2284 93.9462 14.2284H95.4246L95.4161 15.9067C95.3288 16.0052 95.2359 16.0953 95.1345 16.1714H95.1374ZM107.665 10.6297C107.879 11.114 107.986 11.7391 107.986 12.5051V17.9961H106.263V12.8599C106.263 12.5107 106.229 12.2066 106.162 11.9475C106.094 11.6884 105.987 11.4744 105.841 11.3055C105.694 11.1365 105.508 11.0098 105.283 10.9253C105.058 10.8408 104.788 10.7986 104.472 10.7986C104.247 10.7986 104.013 10.8183 103.771 10.8577C103.529 10.8972 103.287 10.9563 103.044 11.0351C102.802 11.114 102.56 11.2069 102.318 11.3139C102.138 11.3928 101.966 11.4829 101.803 11.5786V17.9961H100.079V9.46386L101.803 9.21043V10.4185C101.955 10.2974 102.112 10.1791 102.276 10.0721C102.704 9.79051 103.157 9.57368 103.636 9.42162C104.115 9.26956 104.596 9.19353 105.08 9.19353C105.734 9.19353 106.274 9.3118 106.702 9.54834C107.13 9.78488 107.451 10.1453 107.665 10.6297ZM116.451 5.49342V9.60466C116.434 9.59903 116.417 9.59058 116.4 9.58213C116.107 9.46949 115.784 9.37657 115.429 9.30336C115.074 9.23014 114.683 9.19353 114.255 9.19353C113.5 9.19353 112.799 9.37939 112.151 9.75109C111.503 10.1228 110.983 10.6606 110.588 11.3646C110.194 12.0686 109.997 12.9274 109.997 13.9412C109.997 14.8085 110.146 15.5575 110.445 16.1883C110.743 16.819 111.171 17.3062 111.729 17.6497C112.286 17.9933 112.954 18.165 113.731 18.165C114.181 18.165 114.607 18.1087 115.006 17.9961C115.406 17.8834 115.798 17.7089 116.181 17.4723C116.307 17.3935 116.434 17.3062 116.561 17.2161L116.772 17.9961H118.174V5.25689L116.451 5.49342ZM115.547 16.5515C115.102 16.7148 114.7 16.7965 114.339 16.7965C113.798 16.7965 113.337 16.6867 112.954 16.467C112.571 16.2474 112.278 15.9095 112.075 15.4533C111.872 14.9971 111.771 14.4255 111.771 13.7384C111.771 13.0513 111.884 12.4572 112.109 11.9897C112.334 11.5223 112.658 11.1675 113.08 10.9253C113.503 10.6832 114.007 10.5621 114.593 10.5621C114.874 10.5621 115.144 10.5818 115.404 10.6212C115.663 10.6606 115.924 10.7226 116.189 10.8071C116.271 10.8324 116.364 10.869 116.451 10.9V16.1066C116.133 16.2953 115.832 16.4473 115.547 16.5515Z" fill="#D4EEFC"/>
</svg>

<svg xmlns="http://www.w3.org/2000/svg" viewBox="0 0 124 24"><path fill="#1767CE" d="M0 0h124v24H0z"/><path fill="#fff" d="M6 17.997V6h4v11.998H6Zm9.244-10.089 2.264 10.09H13.2l-2.704-12h2.417a2.276 2.276 0 0 1 1.512.55c.422.346.66.826.82 1.36ZM18 17.998v-12h4v12h-4Zm7.01-7.436a2.382 2.382 0 0 1-2.4-2.4 2.301 2.301 0 0 1 .322-1.2A2.41 2.41 0 0 1 26.21 6.1c.356.21.653.506.862.862.215.363.326.778.321 1.2a2.35 2.35 0 0 1-.321 1.208 2.4 2.4 0 0 1-.862.87 2.3 2.3 0 0 1-1.2.322ZM28 17.997V6h4v11.998h-4Zm8.974-5.441c.01.011.095.15.253.414s.364.602.617 1.014a315.936 315.936 0 0 1 1.597 2.62c.247.41.529.875.845 1.393H35.96c-.27-.439-.516-.836-.736-1.19-.22-.356-.453-.739-.7-1.15-.248-.411-.493-.811-.736-1.2-.242-.39-.45-.73-.625-1.022-.175-.293-.296-.49-.363-.592a1.747 1.747 0 0 1-.287-.845c.016-.29.11-.57.27-.811.067-.113.191-.313.371-.6a182.106 182.106 0 0 0 1.37-2.23l.7-1.159.736-1.2h4.326l-3.346 5.459a1.08 1.08 0 0 0-.17.541c.012.202.083.396.204.558Z"/><path fill="#D4EEFC" d="M50.882 13.049c.231-.037.451-.088.665-.155a3.296 3.296 0 0 0 1.191-.668c.338-.298.603-.67.794-1.115.192-.445.287-.96.287-1.546 0-.653-.126-1.25-.38-1.79-.253-.541-.67-.972-1.25-1.293-.58-.321-1.36-.482-2.34-.482H45v11.996h1.757v-4.595h2.585l2.99 4.595h2.062l-2.805-4.156-.704-.791h-.003Zm.031-5.35c.372.151.648.388.828.709.18.32.27.73.27 1.225 0 .552-.11 1-.329 1.343-.22.344-.535.591-.946.743-.411.152-.898.229-1.461.229h-2.518V7.47h2.72c.586 0 1.065.076 1.436.228ZM62.04 9.733c-.648-.36-1.41-.54-2.29-.54-.878 0-1.647.185-2.306.557a3.896 3.896 0 0 0-1.537 1.571c-.366.676-.55 1.476-.55 2.4 0 .923.173 1.72.516 2.39.344.67.837 1.18 1.479 1.53.642.349 1.385.523 2.23.523s1.656-.186 2.331-.557a3.935 3.935 0 0 0 1.58-1.589c.377-.687.566-1.498.566-2.433 0-.934-.175-1.664-.524-2.323a3.691 3.691 0 0 0-1.495-1.529Zm-.101 5.66c-.22.473-.527.825-.921 1.056a2.623 2.623 0 0 1-1.352.347c-.507 0-.946-.119-1.318-.355-.371-.237-.664-.592-.878-1.065-.214-.473-.321-1.059-.321-1.757s.107-1.256.32-1.706c.215-.45.516-.789.905-1.014.388-.225.853-.338 1.394-.338.428 0 .797.07 1.106.211.31.141.57.347.778.617.208.27.363.594.464.971.102.378.152.797.152 1.26 0 .709-.11 1.3-.33 1.773Zm9.63-5.98a6.042 6.042 0 0 0-.785-.161 6.594 6.594 0 0 0-.913-.06c-.563 0-1.098.108-1.605.322-.507.214-.96.52-1.36.92-.4.4-.712.896-.938 1.487-.225.591-.338 1.27-.338 2.036 0 .856.144 1.597.431 2.222.287.625.707 1.11 1.259 1.453.552.343 1.222.515 2.01.515.609 0 1.211-.118 1.808-.355.324-.13.645-.312.963-.546v.462c0 .428-.053.802-.16 1.123-.107.321-.27.592-.49.811-.22.22-.507.383-.862.49-.355.107-.785.16-1.292.16a9.39 9.39 0 0 1-1.04-.058 7.33 7.33 0 0 1-1.072-.203 8.156 8.156 0 0 1-1.065-.363l.186 1.486c.304.124.622.229.955.313.332.085.678.15 1.039.194.36.046.732.068 1.115.068.957 0 1.763-.16 2.416-.482.653-.32 1.146-.765 1.478-1.334.333-.57.499-1.225.499-1.969V9.194l-1.653.425a4.631 4.631 0 0 0-.586-.206Zm.313 6.766c-.225.13-.442.236-.65.32-.21.085-.412.15-.609.195a2.757 2.757 0 0 1-.617.068c-.585 0-1.072-.11-1.461-.33a1.98 1.98 0 0 1-.862-.997c-.186-.444-.279-1.016-.279-1.714 0-.519.065-.978.195-1.377.13-.4.315-.73.557-.989.242-.259.54-.459.896-.6.355-.14.757-.21 1.208-.21.27 0 .535.022.794.067.259.045.524.11.794.194.082.025.169.06.253.093v5.15a6.37 6.37 0 0 1-.22.13Zm11.86.752c-.304 0-.523-.09-.659-.27-.135-.18-.197-.48-.185-.896l.033-3.48a4.06 4.06 0 0 0-.135-1.082 2.647 2.647 0 0 0-.405-.862 2.285 2.285 0 0 0-.701-.625 3.581 3.581 0 0 0-1.023-.388 6.01 6.01 0 0 0-1.334-.135c-.36 0-.716.022-1.065.067-.349.045-.678.11-.988.194-.31.085-.606.183-.887.296l-.203 1.436a9.938 9.938 0 0 1 1.538-.422c.236-.045.47-.076.7-.093.232-.017.46-.026.685-.026.406 0 .746.04 1.022.119.276.079.493.197.65.355.158.157.271.357.339.6.067.242.1.526.1.853v.425l-1.976.132c-.788.045-1.442.192-1.96.44-.518.247-.904.56-1.157.937a2.18 2.18 0 0 0-.38 1.242c0 .45.098.825.296 1.191.197.366.495.662.895.887.4.225.898.338 1.495.338.552 0 1.028-.079 1.428-.236.4-.158.754-.383 1.064-.676.116-.11.225-.228.332-.355.04.189.1.358.184.498.157.265.377.456.659.575.281.118.602.177.963.177.1 0 .2-.003.295-.008.096-.006.189-.02.279-.043l.245-.059a1.34 1.34 0 0 0 .194-.059l.186-1.132a1.504 1.504 0 0 1-.287.068c-.09.011-.17.017-.237.017Zm-2.813-.76c-.186.146-.383.27-.591.371a2.668 2.668 0 0 1-.659.22c-.23.045-.47.067-.718.067-.315 0-.583-.05-.803-.152a1.104 1.104 0 0 1-.498-.43 1.263 1.263 0 0 1-.169-.668c0-.338.073-.603.22-.794.146-.191.383-.332.71-.422.326-.09.765-.136 1.317-.136h1.479l-.009 1.679c-.087.098-.18.188-.282.264h.003Zm7.78.557.203-.034-.169 1.335a3.75 3.75 0 0 1-1.047.135c-.27 0-.521-.03-.752-.093a1.49 1.49 0 0 1-.6-.313 1.412 1.412 0 0 1-.388-.565 2.304 2.304 0 0 1-.135-.837V5.493l1.723-.253v10.357c0 .203.014.377.042.524a.925.925 0 0 0 .144.363.61.61 0 0 0 .253.211.913.913 0 0 0 .372.068c.067 0 .127 0 .177-.009.05-.005.11-.014.178-.025Zm9.243.203c-.305 0-.524-.09-.66-.27-.135-.18-.197-.48-.185-.896l.034-3.48a4.06 4.06 0 0 0-.136-1.082 2.647 2.647 0 0 0-.405-.862 2.285 2.285 0 0 0-.701-.625 3.581 3.581 0 0 0-1.022-.388 6.01 6.01 0 0 0-1.335-.135c-.36 0-.715.022-1.065.067-.349.045-.678.11-.988.194-.31.085-.606.183-.887.296l-.203 1.436a9.938 9.938 0 0 1 1.538-.422c.236-.045.47-.076.7-.093.232-.017.46-.026.685-.026.406 0 .746.04 1.022.119.276.079.493.197.65.355.158.157.271.357.339.6.067.242.101.526.101.853v.425l-1.977.132c-.788.045-1.442.192-1.96.44-.518.247-.903.56-1.157.937a2.18 2.18 0 0 0-.38 1.242c0 .45.099.825.296 1.191.197.366.495.662.895.887.4.225.898.338 1.495.338.552 0 1.028-.079 1.428-.236.4-.158.755-.383 1.064-.676.116-.11.226-.228.333-.355.04.189.098.358.183.498.157.265.377.456.659.575.281.118.602.177.963.177.101 0 .2-.003.295-.008.096-.006.189-.02.28-.043l.244-.059c.073-.017.138-.036.194-.059l.186-1.132a1.502 1.502 0 0 1-.287.068c-.09.011-.169.017-.236.017Zm-2.814-.76c-.186.146-.383.27-.591.371a2.668 2.668 0 0 1-.659.22c-.23.045-.47.067-.718.067-.315 0-.583-.05-.802-.152a1.104 1.104 0 0 1-.499-.43 1.264 1.264 0 0 1-.169-.668c0-.338.073-.603.22-.794.146-.191.383-.332.71-.422.326-.09.765-.136 1.317-.136h1.479l-.009 1.679c-.087.098-.18.188-.281.264h.002Zm12.528-5.542c.214.484.321 1.11.321 1.875v5.491h-1.723V12.86c0-.35-.034-.653-.101-.912a1.577 1.577 0 0 0-.321-.643 1.357 1.357 0 0 0-.558-.38 2.31 2.31 0 0 0-.811-.126c-.225 0-.459.02-.701.059-.242.04-.484.098-.727.177a7.69 7.69 0 0 0-.726.279c-.18.079-.352.169-.515.265v6.417h-1.724V9.464l1.724-.254v1.208c.152-.12.309-.239.473-.346a5.482 5.482 0 0 1 1.36-.65c.479-.152.96-.228 1.444-.228.654 0 1.194.118 1.622.354.428.237.749.597.963 1.082Zm8.786-5.137v4.112c-.017-.006-.034-.014-.051-.023a5.82 5.82 0 0 0-2.145-.389c-.755 0-1.456.186-2.104.558-.648.372-1.168.91-1.563 1.614-.394.704-.591 1.562-.591 2.576 0 .867.149 1.616.448 2.247.298.631.726 1.118 1.284 1.462.557.343 1.225.515 2.002.515.45 0 .876-.056 1.275-.169.4-.113.792-.287 1.175-.524.126-.079.253-.166.38-.256l.211.78h1.402V5.256l-1.723.237Zm-.904 11.059c-.445.163-.847.245-1.208.245-.541 0-1.002-.11-1.385-.33-.383-.22-.676-.557-.879-1.014-.203-.456-.304-1.027-.304-1.715 0-.687.113-1.28.338-1.748.225-.468.549-.822.971-1.065.423-.242.927-.363 1.513-.363a5.11 5.11 0 0 1 1.596.245c.082.025.175.062.262.093v5.207c-.318.188-.619.34-.904.445Z"/></svg>
